X:1
T: Lady Elgin
C:
R:Strathspey
Q: 128
K:G
M:4/4
L:1/16
|:g3d BG3 ce3 d4|gd3 B3G E3A F3D|g3d B2G2 ce3 d4|B3g e3a fd3 g4|
g3d BG3 ce3 d4|gd3 B3G E3A F3D|g3d B2G2 ce3 d4|B3g e3a fd3 g4|
ee3 g3e b3g eB3|GG3 B3A G3B GE3|ee3 g3e ^df3 B3a|ge3 B3^d ef3 f4|
gd3 B3G ce3 d4|g3d B3G E2A2 F3D|gd3 B2G2 ce3 d4|B3g e3a fd3 g4:|
